X: 98
T:Difyrrwch Gwyr Caernarfon
T:The Delight of the Men of Caernarvon
M:6/8
L:1/8
Q:130
S:Cadw Twmpath Collection
R:Jig
A:Wales
Z:brian_martin12345@yahoo.com
K:G
D|G2G GFG|A2A ABc|BAG DEF|"          Fine"G3-G2:||!
B/c/|d2dd2B|c2cc2A|B2B BAG|"           D.C."A3-A2||

